X:135
T:Untitled March. JJo.001a
S:J.Jones MS,1801,N.Shrops.
N:Follows on from Duke of York’s march JJo.001 but probably a separate tune. NeilB.
A:N Shropshire
Z:Neil Brookes
M:4/4
L:1/8
Q:1/2=100
K:A
A3c BABG|A2c2A2c2|c3e dcdB|c2e2c2e2|!
e3aa3e|f3g{b}a2 gf|e2 ae eddc|c4B2z2:|!
|:B3c dcdB|c2e2a2c’2|B3c dcdB|c2A>AA2z2|!
f3e {b}a2 gf|e3aa3c’|b2a2b2g2|a2a>a a2z2:|

